assets/imgs/app store.svg

<svg width="175" height="55" viewBox="0 0 175 55" fill="none" xmlns="http://www.w3.org/2000/svg">
<path d="M160.814 0.953788H14.534C14.0008 0.953788 13.474 0.953788 12.9422 0.956481C12.497 0.959174 12.0554 0.966997 11.606 0.973581C10.6296 0.98422 9.65551 1.06376 8.69217 1.21151C7.7302 1.36247 6.79835 1.64709 5.92816 2.05572C5.05903 2.46781 4.26489 3.00328 3.57453 3.6427C2.88055 4.28032 2.30206 5.01733 1.86131 5.82538C1.41935 6.63182 1.11289 7.496 0.95252 8.38807C0.790626 9.27901 0.703509 10.1802 0.691951 11.0836C0.678457 11.4964 0.677032 11.9106 0.669922 12.3235V43.4452C0.677032 43.8633 0.678457 44.2683 0.691951 44.6865C0.703512 45.5898 0.790629 46.491 0.95252 47.3819C1.11245 48.2745 1.41893 49.1391 1.86131 49.9459C2.30186 50.7513 2.88043 51.4853 3.57453 52.1194C4.26227 52.7617 5.05693 53.2975 5.92816 53.7065C6.79835 54.1162 7.73009 54.4025 8.69217 54.5558C9.65567 54.7024 10.6297 54.7819 11.606 54.7938C12.0554 54.803 12.497 54.8082 12.9422 54.8082C13.474 54.8109 14.0008 54.8109 14.534 54.8109H160.814C161.336 54.8109 161.867 54.8109 162.39 54.8082C162.833 54.8082 163.287 54.803 163.73 54.7938C164.705 54.7826 165.677 54.703 166.639 54.5558C167.604 54.4014 168.539 54.1152 169.413 53.7065C170.284 53.2973 171.078 52.7615 171.765 52.1194C172.457 51.4829 173.037 50.7494 173.483 49.9459C173.922 49.1385 174.225 48.2739 174.383 47.3819C174.545 46.4909 174.635 45.5899 174.653 44.6865C174.659 44.2683 174.659 43.8633 174.659 43.4452C174.67 42.956 174.67 42.4696 174.67 41.9725V13.7935C174.67 13.3004 174.67 12.8113 174.659 12.3235C174.659 11.9106 174.659 11.4964 174.653 11.0836C174.635 10.1801 174.545 9.27907 174.383 8.38801C174.225 7.49646 173.921 6.63236 173.483 5.82533C172.585 4.20568 171.162 2.88729 169.413 2.0556C168.539 1.64796 167.604 1.36343 166.639 1.21139C165.677 1.06299 164.705 0.98342 163.73 0.973392C163.287 0.966822 162.833 0.958932 162.39 0.956306C161.867 0.953613 161.336 0.953613 160.814 0.953613V0.953788Z" fill="#A6A6A6"/>
<path d="M12.9514 53.6332C12.5083 53.6332 12.076 53.628 11.6365 53.6188C10.7259 53.6078 9.81746 53.5344 8.9186 53.3992C8.08046 53.2655 7.26853 53.0169 6.50959 52.6615C5.7576 52.309 5.07173 51.8469 4.47825 51.2927C3.87618 50.7451 3.37493 50.1099 2.99436 49.4124C2.60959 48.7104 2.34332 47.9579 2.2048 47.1811C2.05521 46.3465 1.97427 45.5026 1.96269 44.6566C1.95348 44.3726 1.94141 43.4272 1.94141 43.4272V12.3239C1.94141 12.3239 1.95426 11.393 1.96277 11.1195C1.97386 10.2748 2.05432 9.43219 2.20346 8.59886C2.34223 7.81997 2.60872 7.0653 2.99369 6.36096C3.37286 5.66393 3.87133 5.0283 4.46977 4.47872C5.06755 3.92391 5.75561 3.45937 6.50888 3.10204C7.26608 2.74777 8.07647 2.50089 8.91292 2.36966C9.81473 2.23309 10.7263 2.15925 11.64 2.14876L12.9521 2.13232H162.385L163.713 2.14942C164.618 2.15939 165.521 2.23257 166.415 2.36834C167.26 2.50121 168.079 2.74982 168.844 3.10598C170.353 3.82611 171.581 4.96543 172.356 6.36424C172.735 7.06372 172.997 7.81224 173.134 8.5844C173.285 9.42457 173.37 10.2738 173.387 11.1254C173.391 11.5067 173.391 11.9163 173.391 12.3239C173.403 12.8288 173.403 13.3094 173.403 13.7939V41.9729C173.403 42.462 173.403 42.9393 173.391 43.4206C173.391 43.8584 173.391 44.2595 173.385 44.6723C173.368 45.5087 173.285 46.3428 173.137 47.1679C173.001 47.9503 172.736 48.7087 172.352 49.4165C171.968 50.1064 171.47 50.7361 170.875 51.2822C170.281 51.8393 169.594 52.3042 168.84 52.6589C168.076 53.0171 167.259 53.2666 166.415 53.3992C165.516 53.5351 164.607 53.6085 163.697 53.6188C163.271 53.628 162.825 53.6332 162.392 53.6332L160.816 53.6359L12.9514 53.6332Z" fill="#2A2A2A"/>
<path d="M36.6765 28.2871C36.6921 27.1633 37.0145 26.0614 37.6136 25.0839C38.2127 24.1065 39.0691 23.2853 40.1031 22.6966C39.4462 21.828 38.5797 21.1131 37.5723 20.6088C36.5649 20.1045 35.4443 19.8246 34.2997 19.7915C31.8579 19.5542 29.4908 21.1444 28.2465 21.1444C26.9782 21.1444 25.0624 19.815 22.9995 19.8543C21.6651 19.8943 20.3647 20.2536 19.2249 20.8972C18.0851 21.5409 17.1448 22.447 16.4956 23.5272C13.6834 28.0356 15.781 34.6615 18.4748 38.3057C19.8226 40.0902 21.3978 42.0835 23.4589 42.0129C25.4757 41.9354 26.229 40.822 28.6636 40.822C31.0755 40.822 31.7822 42.0129 33.8851 41.9679C36.0493 41.9354 37.4129 40.1755 38.7134 38.3741C39.6818 37.1026 40.4269 35.6973 40.9213 34.2103C39.6639 33.7178 38.5909 32.8936 37.8361 31.8403C37.0813 30.787 36.678 29.5512 36.6765 28.2871Z" fill="white"/>
<path d="M32.7051 17.3947C33.8851 16.083 34.4665 14.397 34.3257 12.6948C32.5229 12.8702 30.8576 13.668 29.6616 14.9294C29.0769 15.5456 28.629 16.2625 28.3437 17.0391C28.0583 17.8156 27.9411 18.6367 27.9986 19.4552C28.9003 19.4638 29.7924 19.2829 30.6077 18.9259C31.4229 18.569 32.1401 18.0455 32.7051 17.3947Z" fill="white"/>
<path d="M62.1793 37.4954H55.2966L53.6438 42.0146H50.7285L57.2477 25.2947H60.2765L66.7957 42.0146H63.8308L62.1793 37.4954ZM56.0095 35.41H61.4651L58.7757 28.0757H58.7004L56.0095 35.41Z" fill="white"/>
<path d="M80.8715 35.9199C80.8715 39.708 78.6819 42.1418 75.3776 42.1418C74.5405 42.1824 73.7081 42.0039 72.9755 41.6267C72.243 41.2495 71.6399 40.6889 71.2355 40.0091H71.1729V46.047H68.4707V29.8241H71.0864V31.8517H71.1361C71.5591 31.1751 72.1724 30.6175 72.9105 30.238C73.6486 29.8585 74.4841 29.6714 75.3279 29.6966C78.6691 29.6966 80.8715 32.1422 80.8715 35.9199ZM78.094 35.9199C78.094 33.4519 76.7166 31.8293 74.615 31.8293C72.5504 31.8293 71.1616 33.4861 71.1616 35.9199C71.1616 38.3761 72.5504 40.021 74.615 40.021C76.7166 40.021 78.094 38.4102 78.094 35.9199Z" fill="white"/>
<path d="M95.3657 35.9199C95.3657 39.708 93.176 42.1418 89.8717 42.1418C89.0347 42.1824 88.2022 42.0038 87.4697 41.6267C86.7371 41.2495 86.1341 40.6889 85.7296 40.0091H85.6671V46.047H82.9648V29.8241H85.5805V31.8517H85.6302C86.0532 31.1751 86.6665 30.6174 87.4046 30.238C88.1427 29.8585 88.9781 29.6714 89.822 29.6966C93.1633 29.6966 95.3657 32.1422 95.3657 35.9199ZM92.5882 35.9199C92.5882 33.4519 91.2108 31.8293 89.1092 31.8293C87.0445 31.8293 85.6558 33.486 85.6558 35.9199C85.6558 38.3761 87.0445 40.021 89.1092 40.021C91.2108 40.021 92.5882 38.4102 92.5882 35.9199H92.5882Z" fill="white"/>
<path d="M104.938 37.3558C105.138 39.0138 106.878 40.1025 109.255 40.1025C111.533 40.1025 113.171 39.0138 113.171 37.5187C113.171 36.221 112.183 35.4439 109.843 34.9114L107.503 34.3894C104.187 33.6478 102.648 32.2119 102.648 29.882C102.648 26.9971 105.363 25.0156 109.218 25.0156C113.033 25.0156 115.649 26.9971 115.737 29.882H113.009C112.846 28.2134 111.356 27.2062 109.18 27.2062C107.003 27.2062 105.513 28.2252 105.513 29.7084C105.513 30.8905 106.465 31.586 108.792 32.1185L110.781 32.5708C114.486 33.3821 116.025 34.7601 116.025 37.2058C116.025 40.3338 113.334 42.293 109.055 42.293C105.05 42.293 102.347 40.3799 102.172 37.3556L104.938 37.3558Z" fill="white"/>
<path d="M121.864 26.9399V29.8248H124.367V31.8063H121.864V38.5266C121.864 39.5706 122.365 40.0571 123.465 40.0571C123.762 40.0523 124.059 40.033 124.354 39.9992V41.9689C123.859 42.0545 123.357 42.0933 122.853 42.0846C120.188 42.0846 119.149 41.1576 119.149 38.7935V31.8063H117.234V29.8248H119.148V26.9399H121.864Z" fill="white"/>
<path d="M125.816 35.9195C125.816 32.084 128.256 29.6738 132.06 29.6738C135.877 29.6738 138.305 32.0839 138.305 35.9195C138.305 39.7655 135.89 42.1651 132.06 42.1651C128.232 42.1651 125.816 39.7655 125.816 35.9195ZM135.552 35.9195C135.552 33.2884 134.25 31.7355 132.06 31.7355C129.87 31.7355 128.57 33.3002 128.57 35.9195C128.57 38.561 129.87 40.1021 132.06 40.1021C134.25 40.1021 135.552 38.561 135.552 35.9195H135.552Z" fill="white"/>
<path d="M140.525 29.824H143.103V31.8989H143.165C143.34 31.2508 143.75 30.6782 144.326 30.2771C144.903 29.876 145.611 29.671 146.332 29.6965C146.643 29.6954 146.954 29.7268 147.258 29.7898V32.1303C146.864 32.019 146.454 31.968 146.043 31.9791C145.651 31.9643 145.26 32.0284 144.896 32.167C144.533 32.3055 144.206 32.5152 143.939 32.7816C143.671 33.0481 143.469 33.365 143.346 33.7105C143.224 34.0561 143.183 34.4222 143.228 34.7837V42.0142H140.525L140.525 29.824Z" fill="white"/>
<path d="M159.725 38.4345C159.361 40.6474 157.034 42.1661 154.056 42.1661C150.227 42.1661 147.85 39.7901 147.85 35.9783C147.85 32.1547 150.239 29.6748 153.943 29.6748C157.585 29.6748 159.876 31.9916 159.876 35.6877V36.545H150.577V36.6962C150.535 37.1448 150.595 37.5968 150.755 38.0221C150.916 38.4473 151.172 38.8361 151.507 39.1627C151.842 39.4893 152.248 39.7461 152.698 39.9162C153.149 40.0862 153.633 40.1656 154.119 40.1491C154.757 40.2045 155.398 40.0675 155.946 39.7586C156.494 39.4497 156.919 38.9853 157.159 38.4345L159.725 38.4345ZM150.59 34.7962H157.172C157.196 34.3928 157.13 33.9892 156.978 33.6105C156.826 33.2319 156.591 32.8865 156.287 32.596C155.984 32.3055 155.619 32.0761 155.216 31.9223C154.812 31.7686 154.379 31.6937 153.943 31.7023C153.503 31.6999 153.067 31.7782 152.659 31.9327C152.252 32.0872 151.882 32.3148 151.57 32.6025C151.259 32.8901 151.012 33.2321 150.843 33.6086C150.675 33.9851 150.589 34.3888 150.59 34.7962V34.7962Z" fill="white"/>
<path d="M100.579 17.0127H101.842V17.8472H100.54C100.369 19.6013 99.3791 20.4784 97.5693 20.4784C96.7163 20.4784 96.0469 20.2411 95.5611 19.7664C95.0085 19.2249 94.7322 18.4035 94.7322 17.302C94.7322 16.5566 94.8268 15.8352 95.0159 15.138L96.1007 14.9322C95.8856 15.6702 95.778 16.4249 95.778 17.1963C95.778 18.0864 95.982 18.7391 96.3899 19.1545C96.7126 19.4845 97.1391 19.6496 97.6694 19.6496C98.9081 19.6496 99.5274 18.8782 99.5274 17.3354V12.4901H100.579V17.0127ZM97.5582 13.5971C97.3876 13.5971 97.2429 13.5378 97.1242 13.4191C97.0019 13.3004 96.9407 13.1558 96.9407 12.9852C96.9407 12.8109 97.0019 12.6625 97.1242 12.5401C97.2429 12.4178 97.3876 12.3566 97.5582 12.3566C97.7288 12.3566 97.8752 12.4159 97.9976 12.5346C98.1237 12.657 98.1868 12.8072 98.1868 12.9852C98.1868 13.1521 98.1237 13.2967 97.9976 13.4191C97.8752 13.5378 97.7288 13.5971 97.5582 13.5971ZM101.675 17.8472V17.0127H102.576C102.839 17.0127 103.06 17.0331 103.238 17.0739C102.674 16.7179 102.392 16.0763 102.392 15.1492C102.392 14.3629 102.632 13.7139 103.11 13.2021C103.625 12.6458 104.336 12.3677 105.241 12.3677C106.865 12.3677 107.677 13.2188 107.677 14.9211V17.8472H101.675ZM106.654 15.0991C106.654 13.8307 106.153 13.1966 105.152 13.1966C104.625 13.1966 104.21 13.3709 103.905 13.7195C103.601 14.057 103.449 14.5131 103.449 15.088C103.449 16.3711 104.141 17.0127 105.524 17.0127H106.654V15.0991ZM114.375 17.8472C112.383 17.8472 111.388 16.9627 111.388 15.1937C111.388 14.3889 111.623 13.7288 112.094 13.2133C112.61 12.6495 113.331 12.3677 114.258 12.3677C115.092 12.3677 115.856 12.5012 116.55 12.7682V17.0127H117.813V17.8472H114.375ZM115.521 13.4636C115.15 13.2856 114.692 13.1966 114.147 13.1966C113.62 13.1966 113.205 13.369 112.901 13.7139C112.597 14.0551 112.445 14.5094 112.445 15.0768C112.445 16.3674 113.136 17.0127 114.519 17.0127H115.521V13.4636ZM117.64 17.0127H119.304V12.4901H120.349V17.0127H122.118V17.8472H117.64V17.0127ZM119.215 19.5439C119.215 19.7145 119.155 19.8591 119.037 19.9778C118.918 20.1002 118.775 20.1613 118.608 20.1613C118.438 20.1613 118.295 20.102 118.18 19.9833C118.065 19.8684 118.007 19.7219 118.007 19.5439C118.007 19.377 118.065 19.236 118.18 19.1211C118.295 19.0024 118.438 18.9431 118.608 18.9431C118.775 18.9431 118.918 19.0005 119.037 19.1155C119.155 19.2305 119.215 19.3733 119.215 19.5439ZM120.889 19.5439C120.889 19.7145 120.832 19.8591 120.717 19.9778C120.602 20.1002 120.461 20.1613 120.294 20.1613C120.123 20.1613 119.979 20.102 119.86 19.9833C119.741 19.8647 119.682 19.7182 119.682 19.5439C119.682 19.377 119.741 19.236 119.86 19.1211C119.979 19.0024 120.123 18.9431 120.294 18.9431C120.461 18.9431 120.602 19.0005 120.717 19.1155C120.832 19.2305 120.889 19.3733 120.889 19.5439ZM121.957 17.0127H123.554V9.81431H124.6V17.0127H125.851V17.8472H121.957V17.0127ZM125.684 17.0127H127.882C127.069 16.6493 126.663 15.978 126.663 14.999C126.663 14.2461 126.897 13.6305 127.364 13.1521C127.872 12.6291 128.577 12.3677 129.478 12.3677C130.009 12.3677 130.502 12.4511 130.958 12.618L130.763 13.4636C130.348 13.2782 129.897 13.1854 129.411 13.1854C128.903 13.1854 128.495 13.3431 128.188 13.6583C127.872 13.9772 127.715 14.4093 127.715 14.9544C127.715 15.5701 127.952 16.0578 128.427 16.4175C128.953 16.8143 129.725 17.0127 130.741 17.0127H131.676V17.8472H125.684V17.0127ZM139.664 9.81431H140.715V17.0127H141.934V17.8472H140.682C140.474 19.6013 139.547 20.4784 137.9 20.4784C136.031 20.4784 135.097 19.4196 135.097 17.302C135.097 16.5566 135.191 15.8352 135.38 15.138L136.465 14.9322C136.25 15.6702 136.143 16.4249 136.143 17.1963C136.143 18.8318 136.762 19.6496 138.001 19.6496C139.109 19.6496 139.664 18.8559 139.664 17.2686V9.81431ZM141.761 17.0127H143.402V12.4901H144.448V12.9351C144.448 13.7213 144.407 14.4019 144.326 14.9767H144.337C144.596 14.1497 145.019 13.5007 145.605 13.0297C146.161 12.5884 146.779 12.3677 147.458 12.3677C148.188 12.3677 148.752 12.5958 149.149 13.0519C149.542 13.5007 149.738 14.1348 149.738 14.9544C149.738 15.8334 149.479 16.5195 148.96 17.0127H150.601V17.8472H141.761V17.0127ZM146.523 17.0127C147.943 17.0127 148.654 16.3526 148.654 15.0323C148.654 13.8085 148.19 13.1966 147.263 13.1966C146.525 13.1966 145.881 13.6027 145.333 14.4148C144.832 15.1529 144.53 16.0188 144.426 17.0127H146.523ZM150.373 17.0127H155.079C155.131 16.5492 155.157 16.1597 155.157 15.8445C155.157 14.9544 154.975 14.311 154.611 13.9142C154.222 13.4914 153.573 13.28 152.664 13.28C152.212 13.28 151.789 13.306 151.396 13.3579V12.5401C151.797 12.4771 152.249 12.4456 152.753 12.4456C153.974 12.4456 154.86 12.7274 155.413 13.2911C155.935 13.8252 156.197 14.6485 156.197 15.7611C156.197 16.4212 156.136 17.1166 156.013 17.8472H150.373V17.0127ZM158.038 9.81431H159.084V17.8472H158.038V9.81431Z" fill="white"/>
</svg>

<svg xmlns="http://www.w3.org/2000/svg" width="175" height="55" fill="none"><path fill="#A6A6A6" d="M160.814.954H14.534c-.533 0-1.06 0-1.592.002-.445.003-.887.011-1.336.018q-1.466.016-2.914.238a10.2 10.2 0 0 0-2.764.844 9.4 9.4 0 0 0-2.353 1.587A8.5 8.5 0 0 0 .953 8.388Q.709 9.726.692 11.084c-.014.412-.015.827-.022 1.24v31.121c.007.418.008.823.022 1.242q.018 1.357.26 2.695a8.42 8.42 0 0 0 2.623 4.737 9.1 9.1 0 0 0 2.353 1.587c.87.41 1.802.697 2.764.85.964.146 1.938.226 2.914.238.45.009.891.014 1.336.014.532.003 1.059.003 1.592.003h146.28c.522 0 1.053 0 1.576-.003.443 0 .897-.005 1.34-.014q1.464-.017 2.909-.238c.965-.155 1.9-.44 2.774-.85a9.1 9.1 0 0 0 2.352-1.587 8.7 8.7 0 0 0 1.718-2.173 8.5 8.5 0 0 0 .9-2.564c.162-.891.252-1.792.27-2.695.006-.419.006-.824.006-1.242.011-.489.011-.975.011-1.473V13.794c0-.494 0-.983-.011-1.47q.001-.62-.006-1.24a17 17 0 0 0-.27-2.696 8.5 8.5 0 0 0-.9-2.563c-.898-1.62-2.321-2.938-4.07-3.77a10.4 10.4 0 0 0-2.774-.844 20.5 20.5 0 0 0-2.909-.238c-.443-.006-.897-.014-1.34-.017-.523-.002-1.054-.002-1.576-.002"/><path fill="#2A2A2A" d="M12.951 53.633c-.443 0-.875-.005-1.315-.014a20 20 0 0 1-2.717-.22 9 9 0 0 1-2.41-.738 7.9 7.9 0 0 1-2.03-1.368 7.311 7.311 0 0 1-2.273-4.112q-.226-1.253-.243-2.524c-.01-.284-.022-1.23-.022-1.23V12.324s.013-.931.022-1.204c.01-.845.091-1.688.24-2.521a7.35 7.35 0 0 1 2.267-4.12 8.1 8.1 0 0 1 2.039-1.377 9 9 0 0 1 2.404-.732 20 20 0 0 1 2.727-.221l1.312-.017h149.433l1.328.017q1.36.015 2.702.22a9.1 9.1 0 0 1 2.429.737c1.509.72 2.737 1.86 3.512 3.258.379.7.641 1.448.778 2.22.151.84.236 1.69.253 2.541.004.382.004.791.004 1.199.012.505.012.985.012 1.47v28.179c0 .489 0 .966-.012 1.448 0 .437 0 .839-.006 1.251q-.026 1.256-.248 2.496a7.4 7.4 0 0 1-.785 2.249 7.5 7.5 0 0 1-1.477 1.865 7.9 7.9 0 0 1-2.035 1.377 9 9 0 0 1-2.425.74c-.899.136-1.808.21-2.718.22-.426.009-.872.014-1.305.014l-1.576.003z"/><path fill="#fff" d="M36.677 28.287a6.3 6.3 0 0 1 .937-3.203 6.9 6.9 0 0 1 2.49-2.387 7.2 7.2 0 0 0-2.532-2.088 7.8 7.8 0 0 0-3.272-.818c-2.442-.237-4.81 1.353-6.053 1.353-1.269 0-3.185-1.329-5.247-1.29-1.335.04-2.635.4-3.775 1.043a7.44 7.44 0 0 0-2.73 2.63c-2.812 4.509-.714 11.134 1.98 14.779 1.348 1.784 2.923 3.778 4.984 3.707 2.017-.078 2.77-1.191 5.205-1.191 2.412 0 3.118 1.19 5.221 1.146 2.164-.033 3.528-1.793 4.828-3.594a14.3 14.3 0 0 0 2.208-4.164 6.86 6.86 0 0 1-3.085-2.37 6.1 6.1 0 0 1-1.16-3.553M32.705 17.395c1.18-1.312 1.762-2.998 1.62-4.7-1.802.175-3.467.973-4.663 2.234a6.15 6.15 0 0 0-1.318 2.11 5.8 5.8 0 0 0-.345 2.416 6.4 6.4 0 0 0 2.609-.53 5.9 5.9 0 0 0 2.097-1.53M62.18 37.495h-6.883l-1.653 4.52h-2.916l6.52-16.72h3.029l6.519 16.72H63.83zm-6.17-2.085h5.455l-2.69-7.334H58.7zM80.872 35.92c0 3.788-2.19 6.222-5.494 6.222a4.76 4.76 0 0 1-2.403-.515 4.3 4.3 0 0 1-1.74-1.618h-.062v6.038H68.47V29.824h2.615v2.028h.05a4.5 4.5 0 0 1 1.775-1.614 5 5 0 0 1 2.417-.541c3.341 0 5.543 2.445 5.543 6.223m-2.778 0c0-2.468-1.377-4.09-3.479-4.09-2.065 0-3.453 1.656-3.453 4.09 0 2.456 1.388 4.101 3.453 4.101 2.102 0 3.479-1.61 3.479-4.101M95.366 35.92c0 3.788-2.19 6.222-5.494 6.222a4.76 4.76 0 0 1-2.402-.515 4.3 4.3 0 0 1-1.74-1.618h-.063v6.038h-2.702V29.824h2.615v2.028h.05a4.5 4.5 0 0 1 1.775-1.614 5 5 0 0 1 2.417-.541c3.341 0 5.544 2.445 5.544 6.223m-2.778 0c0-2.468-1.377-4.09-3.479-4.09-2.064 0-3.453 1.656-3.453 4.09 0 2.456 1.388 4.101 3.453 4.101 2.102 0 3.48-1.61 3.48-4.101M104.938 37.356c.2 1.658 1.94 2.746 4.317 2.746 2.278 0 3.916-1.088 3.916-2.583 0-1.298-.988-2.075-3.328-2.608l-2.34-.522c-3.316-.741-4.855-2.177-4.855-4.507 0-2.885 2.715-4.866 6.57-4.866 3.815 0 6.431 1.981 6.519 4.866h-2.728c-.163-1.669-1.653-2.676-3.829-2.676s-3.667 1.02-3.667 2.502c0 1.183.952 1.878 3.279 2.41l1.989.453c3.705.811 5.244 2.19 5.244 4.635 0 3.128-2.691 5.087-6.97 5.087-4.005 0-6.708-1.913-6.883-4.937zM121.864 26.94v2.885h2.503v1.981h-2.503v6.72c0 1.045.501 1.531 1.601 1.531q.446-.007.889-.058v1.97a8 8 0 0 1-1.501.116c-2.665 0-3.704-.927-3.704-3.291v-6.988h-1.915v-1.981h1.914V26.94zM125.816 35.92c0-3.836 2.44-6.246 6.244-6.246 3.817 0 6.245 2.41 6.245 6.246 0 3.846-2.415 6.245-6.245 6.245-3.828 0-6.244-2.4-6.244-6.245m9.736 0c0-2.632-1.302-4.185-3.492-4.185s-3.49 1.565-3.49 4.185c0 2.641 1.3 4.182 3.49 4.182s3.492-1.541 3.492-4.182M140.525 29.824h2.578v2.075h.062a2.9 2.9 0 0 1 1.161-1.622 3.3 3.3 0 0 1 2.006-.58q.468-.002.926.093v2.34a4 4 0 0 0-1.215-.15 2.9 2.9 0 0 0-1.147.187c-.363.139-.69.348-.957.615-.268.266-.47.583-.593.929a2.35 2.35 0 0 0-.118 1.073v7.23h-2.703zM159.725 38.435c-.364 2.212-2.691 3.731-5.669 3.731-3.829 0-6.206-2.376-6.206-6.188 0-3.823 2.389-6.303 6.093-6.303 3.642 0 5.933 2.317 5.933 6.013v.857h-9.299v.151c-.042.449.018.9.178 1.326.161.425.417.814.752 1.14.335.327.741.584 1.191.754s.935.25 1.421.233a3.17 3.17 0 0 0 1.827-.39 2.83 2.83 0 0 0 1.213-1.325zm-9.135-3.639h6.582a2.74 2.74 0 0 0-.194-1.185 2.9 2.9 0 0 0-.691-1.015 3.2 3.2 0 0 0-1.071-.674 3.4 3.4 0 0 0-1.273-.22 3.6 3.6 0 0 0-1.284.23 3.4 3.4 0 0 0-1.089.67c-.311.288-.558.63-.727 1.007s-.254.78-.253 1.187M100.579 17.013h1.263v.834h-1.302q-.256 2.631-2.97 2.631-1.28 0-2.009-.712-.83-.811-.829-2.464 0-1.118.284-2.164l1.085-.206a8 8 0 0 0-.323 2.264q0 1.335.612 1.958.485.495 1.28.496 1.857 0 1.857-2.315V12.49h1.052zm-3.02-3.416a.6.6 0 0 1-.435-.178.58.58 0 0 1-.183-.434q0-.26.183-.445a.58.58 0 0 1 .434-.183q.255 0 .44.178.189.183.189.45a.59.59 0 0 1-.19.434.6.6 0 0 1-.439.178m4.116 4.25v-.834h.901q.395 0 .662.06-.846-.533-.846-1.924 0-1.179.718-1.947.773-.834 2.131-.834 2.436 0 2.436 2.553v2.926zm4.979-2.748q0-1.902-1.502-1.902-.79 0-1.247.523-.456.505-.456 1.368 0 1.925 2.075 1.925h1.13zm7.721 2.748q-2.988 0-2.987-2.653 0-1.207.706-1.98.774-.847 2.164-.846 1.251 0 2.292.4v4.245h1.263v.834zm1.146-4.383q-.556-.267-1.374-.267-.79 0-1.246.517-.456.511-.456 1.363 0 1.936 2.074 1.936h1.002zm2.119 3.549h1.664V12.49h1.045v4.523h1.769v.834h-4.478zm1.575 2.53q0 .257-.178.435a.58.58 0 0 1-.429.183.57.57 0 0 1-.428-.178.6.6 0 0 1-.173-.44q0-.25.173-.422a.57.57 0 0 1 .428-.178q.25 0 .429.172a.57.57 0 0 1 .178.429m1.674 0a.6.6 0 0 1-.172.435.56.56 0 0 1-.423.183.6.6 0 0 1-.434-.178.6.6 0 0 1-.178-.44q0-.25.178-.422a.6.6 0 0 1 .434-.178q.25 0 .423.172a.58.58 0 0 1 .172.429m1.068-2.53h1.597V9.814h1.046v7.199h1.251v.834h-3.894zm3.727 0h2.198q-1.22-.546-1.219-2.014 0-1.13.701-1.847.762-.784 2.114-.784.796 0 1.48.25l-.195.846a3.3 3.3 0 0 0-1.352-.279q-.762 0-1.223.473-.473.48-.473 1.296 0 .924.712 1.463.79.596 2.314.596h.935v.834h-5.992zm13.98-7.199h1.051v7.199h1.219v.834h-1.252q-.312 2.631-2.782 2.631-2.803 0-2.803-3.176 0-1.118.283-2.164l1.085-.206a8 8 0 0 0-.322 2.264q0 2.454 1.858 2.454 1.663 0 1.663-2.381zm2.097 7.199h1.641V12.49h1.046v.445q0 1.18-.122 2.042h.011q.389-1.24 1.268-1.947a2.9 2.9 0 0 1 1.853-.662q1.095 0 1.691.684.59.674.589 1.902 0 1.32-.778 2.059h1.641v.834h-8.84zm4.762 0q2.13 0 2.131-1.98 0-1.836-1.391-1.836-1.107 0-1.93 1.218-.751 1.107-.907 2.598zm3.85 0h4.706q.078-.695.078-1.169 0-1.335-.546-1.93-.584-.634-1.947-.634-.678 0-1.268.078v-.818a9 9 0 0 1 1.357-.094q1.831 0 2.66.845.784.802.784 2.47 0 .99-.184 2.086h-5.64zm7.665-7.199h1.046v8.033h-1.046z"/></svg>
